X:18
T:Falmouth Assembly  THO4.018
M:6/8
L:1/8
Z:vmp. Peter Dunk 2010/11.from a transcription by Fynn Titford-Mock 2007
B:Thompson's Compleat Collection of 200 Favourite Country Dances Volume IV.
Q:3/8=110
K:G
d|BGG GAB|cAA ABc|dgd dBG|A3 A2::d|g2 d e2 d|edc BAG|
gag fed|e3 d2 d/c/|BAG GAB|cBA ABc|dgd dBG|A3 A2:|
